src/assets/duotone/LanguageCircle.svg

<svg width="24" height="24" viewBox="0 0 24 24"  xmlns="http://www.w3.org/2000/svg">
<path opacity="0.4" d="M12 22C17.5228 22 22 17.5228 22 12C22 6.47715 17.5228 2 12 2C6.47715 2 2 6.47715 2 12C2 17.5228 6.47715 22 12 22Z" />
<path d="M17.0002 15.97C15.6902 15.97 14.4402 15.37 13.4402 14.26C14.4302 12.99 15.0702 11.42 15.2102 9.70004H16.9902C17.4002 9.70004 17.7402 9.36004 17.7402 8.95004C17.7402 8.54004 17.4002 8.20004 16.9902 8.20004H14.5602C14.5402 8.20004 14.5202 8.19003 14.5002 8.19003C14.4802 8.19003 14.4602 8.20004 14.4402 8.20004H12.7502V7.27002C12.7502 6.86002 12.4102 6.52002 12.0002 6.52002C11.5902 6.52002 11.2502 6.86002 11.2502 7.27002V8.20004H7.01025C6.60025 8.20004 6.26025 8.54004 6.26025 8.95004C6.26025 9.36004 6.60025 9.70004 7.01025 9.70004H12.0002H13.7003C13.3303 13.22 10.4702 15.97 6.99023 15.97C6.58023 15.97 6.24023 16.31 6.24023 16.72C6.24023 17.13 6.58023 17.47 6.99023 17.47C9.06023 17.47 10.9502 16.67 12.4002 15.36C13.6702 16.72 15.2802 17.47 16.9902 17.47C17.4002 17.47 17.7402 17.13 17.7402 16.72C17.7402 16.31 17.4102 15.97 17.0002 15.97Z" />
</svg>

<?xml version="1.0" encoding="UTF-8"?>
<svg width="24" height="24" viewBox="0 0 24 24" xmlns="http://www.w3.org/2000/svg">
 <path d="m12 22c5.5228 0 10-4.4772 10-10 0-5.5228-4.4772-10-10-10-5.5228 0-10 4.4772-10 10 0 5.5228 4.4772 10 10 10z" opacity=".4"/>
 <path d="m17 15.97c-1.31 0-2.56-0.6-3.56-1.71 0.99-1.27 1.63-2.84 1.77-4.56h1.78c0.41 0 0.75-0.34 0.75-0.75s-0.34-0.75-0.75-0.75h-2.43c-0.02 0-0.04-0.01001-0.06-0.01001s-0.04 0.01001-0.06 0.01001h-1.69v-0.93002c0-0.41-0.34-0.75-0.75-0.75s-0.75 0.34-0.75 0.75v0.93002h-4.24c-0.41 0-0.75 0.34-0.75 0.75s0.34 0.75 0.75 0.75h6.69c-0.37 3.52-3.2301 6.27-6.7101 6.27-0.41 0-0.75 0.34-0.75 0.75s0.34 0.75 0.75 0.75c2.07 0 3.96-0.8 5.41-2.11 1.27 1.36 2.88 2.11 4.59 2.11 0.41 0 0.75-0.34 0.75-0.75s-0.33-0.75-0.74-0.75z"/>
</svg>
